X:1
T:Jesse, 76.76.76.76.77
T:Jesse, 76.76.76.76.77
T:Ira David Sankey (1840-1908), arr. R. W. Adams 
T:Public Domain Courtesy of the Cyber Hymnal™
C:Ira David Sankey (1840-1908), arr. R. W. Adams
Z:Public Domain
Z:Courtesy of the Cyber Hymnal™
%%score ( 1 2 ) 3
L:1/8
Q:1/4=110
M:4/4
K:Eb
V:1 treble 
V:2 treble 
V:3 bass 
V:1
 [EB]2 | [EB]2 [EB]2 [=Ec]3 [EG] | [EA]2 [FA]4 [EA]2 | [DA]2 [DA]2 [DB]2 [DF]2 | [EG]6 [DF]2 | %5
 E2 [EG]2 [EB]2 [Ee]2 | [Ed]2 [Ec]4 [Ee]2 | [Ee]2 [EB]2 [DA]2 [DF]2 | E6 [EB]2 | %9
 [EB]2 [EB]2 [=Ec]3 [EG] | [FB]2 [FA]4 [EA]2 | [DA]2 [DA]2 [DB]2 [DF]2 | [EG]6 | [DF]2 | %14
 E2 [EG]2 [EB]2 [Ee]2 | [Ed]2 [Ec]4 [Ee]2 | [Ee]2 [EB]2 [DA]3 [DF] | [EG]8 | E2 [EG]2 [EB]2 [Ee]2 | %19
 [Ed]2 [Ec]2 [Ee]4 | [Ee]2 [EB]2 [DA]2 [DF]2 | [CE]4 [DF]4 | [B,E]6 |] %23
V:2
 x2 | x8 | x8 | x8 | x8 | E2 x6 | x8 | x8 | E6 x2 | x8 | x8 | x8 | x6 | x2 | E2 x6 | x8 | x8 | x8 | %18
 E2 x6 | x8 | x8 | x8 | x6 |] %23
V:3
 [E,G,]2 | [E,G,]2 [E,G,]2 [C,G,]3 [C,C] | [F,C]2 [F,C]4 [F,_C]2 | %3
 [B,,B,]2 [B,,B,]2 [B,,F,]2 [B,,B,]2 | [E,B,]6 [A,B,]2 | [G,B,]2 [E,B,]2 [E,G,]2 [G,,B,]2 | %6
 [A,,B,]2 [A,,A,]4 [=A,,F,]2 | [B,,G,]2 [B,,G,]2 [B,,F,]2 [B,,A,]2 | [E,G,]6 [E,G,]2 | %9
 [E,G,]2 [E,G,]2 [C,G,]3 [C,C] | [F,C]2 [F,C]4 [F,_C]2 | [B,,B,]2 [B,,B,]2 [B,,F,]2 [B,,B,]2 | %12
 [E,B,]6 | [A,B,]2 | [G,B,]2 [E,B,]2 [E,G,]2 [G,,B,]2 | [A,,A,]2 [A,,G,]4 [=A,,F,]2 | %16
 [B,,G,]2 [B,,G,]2 [B,,G,]3 [B,,A,] | [E,B,]8 | [G,B,]2 [E,B,]2 [E,G,]2 [G,,B,]2 | %19
 [A,,A,]2 [A,,G,]2 [=A,,F,]4 | [B,,G,]2 [B,,G,]2 [B,,G,]2 [B,,A,]2 | [F,A,]4 [G,B,]4 | %22
 [B,,E,G,]6 |] %23

